X: 98
T:Missa Malheur me bat / Credo
N: Derived from Jos0901c-Missa_Malheur_me_bat-Credo.krn
C: Josquin des Prez
%%abc-version 2.0
%%abcx-abcm2ps-target-version 5.9.1 (29 Sep 2008)
%%abc-creator hum2abc beta
%%abcx-conversion-date 2019/02/12 16:15:43
%%abc-edited-by Jesse Rodin
%%abc-edited-by Jesse Rodin; Victoria Chang 2011/04/17
%%abcx-initial-encoding-date 2011/04/17/
%%humdrum-veritas 2824789157
%%humdrum-veritas-data 420464237
%%linebreak <none>
%%barnumbers 0
L: 1/4
M: 2/1
Q: 1/2=120
%%staves [1 2 3 4]
V: 1 clef=treble
V: 2 clef=treble-8
V: 3 clef=treble-8
V: 4 clef=bass
K: C
[V:1] z8 :
[V:2] E6F2 | 
[V:3] z8 | 
[V:4] z8 | 
[V:1] x8 | 
[V:2] G2E2A4 | 
[V:3] z8 | 
[V:4] z8 | 
[V:1] z8 :
[V:2] G2E2B4- | 
[V:3] E6F2 | 
[V:4] z8 | 
[V:1] x8 | 
[V:2] B2G2c4 | 
[V:3] G2E2A4 | 
[V:4] z8 | 
[V:1] E8- :
[V:2] B4E4 | 
[V:3] G2E2B4- | 
[V:4] E,6F,2 | 
[V:1] E8 | 
[V:2] z4e4- | 
[V:3] B2G2c4 | 
[V:4] G,2E,2A,4 | 
[V:1] B8 :
[V:2] e4e4 | 
[V:3] B2E2G2A2 | 
[V:4] G,4E,4- | 
[V:1] B8 | 
[V:2] e4e4 | 
[V:3] B4E4 | 
[V:4] E,2F,2G,2E,2 | 
[V:1] c8 :
[V:2] c6BA | 
[V:3] z4A4 | 
[V:4] A,4A,,4- | 
[V:1] c8 | 
[V:2] c3de4 | 
[V:3] A4A4 | 
[V:4] A,,2B,,2C,2A,,2 | 
[V:1] B8 :
[V:2] z2E2G3A | 
[V:3] G3AB2E2- | 
[V:4] E,8 | 
[V:1] G8 | 
[V:2] B2E2z2e2- | 
[V:3] EFGAB2c2- | 
[V:4] z8 | 
[V:1] A8 :
[V:2] ede2f2e2 | 
[V:3] cBAGF2A2- | 
[V:4] z8 | 
[V:1] A8 | 
[V:2] f2e4d2 | 
[V:3] AGFEF4 | 
[V:4] z8 | 
[V:1] G6A2 :
[V:2] e2B2c4 | 
[V:3] E4z4 | 
[V:4] E,6F,2 | 
[V:1] B4E4- | 
[V:2] B2G2c3A | 
[V:3] z8 | 
[V:4] G,2G,2A,4 | 
[V:1] E2F2G4 :
[V:2] B2A4G2 | 
[V:3] z8 | 
[V:4] G,2F,2E,4 | 
[V:1] A4E4 | 
[V:2] d4z2c2- | 
[V:3] z8 | 
[V:4] D,4A,4- | 
[V:1] F4E4- :
[V:2] c2A2B2c2- | 
[V:3] z8 | 
[V:4] A,2F,2G,2A,2 | 
[V:1] E4D4 | 
[V:2] cBB4A2 | 
[V:3] z8 | 
[V:4] E,4F,4 | 
[V:1] E8 :
[V:2] c4B4 | 
[V:3] z4z2E2- | 
[V:4] E,8 | 
[V:1] z8 | 
[V:2] c2A2B2c2 | 
[V:3] E2F2G4 | 
[V:4] z4E,4 | 
[V:1] [M:2/1]z8 | 
[V:2] c2d2e2A2 | 
[V:3] A4G2F2 | 
[V:4] F,4E,2F,2 | 
[V:1] z8 | 
[V:2] z2e4d2 | 
[V:3] E4F4 | 
[V:4] G,4A,4 | 
[V:1] E8 | 
[V:2] c4B4 | 
[V:3] z4z2E2- | 
[V:4] A,,B,,C,D,E,2G,2- | 
[V:1] B4B4 | 
[V:2] z4B4 | 
[V:3] E2F2G4 | 
[V:4] G,F,D,2E,4 | 
[V:1] c4c4 | 
[V:2] A2c3de2- | 
[V:3] A8 | 
[V:4] A,,4z4 | 
[V:1] B4G4 | 
[V:2] efg3fed | 
[V:3] G3AB2c2- | 
[V:4] E,8 | 
[V:1] A4A4 | 
[V:2] c4A4 | 
[V:3] c2A4c2- | 
[V:4] F,8 | 
[V:1] G3AB2E2- | 
[V:2] e3dB2c2- | 
[V:3] c2BAG4 | 
[V:4] E,4E,4 | 
[V:1] EFG2A2E2 | 
[V:2] cBG2F2G2 | 
[V:3] z4z2c2 | 
[V:4] E,4D,2C,2 | 
[V:1] F2E4D2 | 
[V:2] F2G2D4 | 
[V:3] B2G2A4 | 
[V:4] D,2E,2F,4 | 
[V:1] E4z4 | 
[V:2] z2G2G2G2 | 
[V:3] B4z2E2 | 
[V:4] E,8 | 
[V:1] [M:4/2]B8 :
[V:2] E2G4FE | 
[V:3] G2G2E2B2- | 
[V:4] z2E,2G,2G,2 | 
[V:1] G8 | 
[V:2] e4d4 | 
[V:3] BAc2B4 | 
[V:4] E,4z2G,2- | 
[V:1] A8 :
[V:2] z2d2d2d2 | 
[V:3] A4D4 | 
[V:4] G,2F,E,F,4 | 
[V:1] B8 | 
[V:2] B3cd2G2 | 
[V:3] z4G4 | 
[V:4] G,2G,,2G,,2G,2- | 
[V:1] c8 :
[V:2] c4A4 | 
[V:3] A4A4 | 
[V:4] G,2F,E,F,4 | 
[V:1] B4G4- | 
[V:2] B8 | 
[V:3] G4G4 | 
[V:4] G,2G,,2G,,2G,2- | 
[V:1] G4A4 :
[V:2] z4d4 | 
[V:3] E4F4 | 
[V:4] G,2F,E,D,4 | 
[V:1] B8 | 
[V:2] B2c2d4 | 
[V:3] G8 | 
[V:4] G,,4z2G,2 | 
[V:1] [M:2/1]B4G4 | 
[V:2] G4z4 | 
[V:3] z2G2B2c2 | 
[V:4] G,2G,4F,E, | 
[V:1] A4B4 | 
[V:2] z4z2G2 | 
[V:3] A4G4 | 
[V:4] F,4G,2G,,2 | 
[V:1] c4B2G2- | 
[V:2] E2F2G3G | 
[V:3] z4z2G2 | 
[V:4] A,,2A,,2G,,2G,,2 | 
[V:1] G2A2B4 | 
[V:2] G2c2B2d2 | 
[V:3] E3FG2G2 | 
[V:4] C,4z2G,,2 | 
[V:1] [M:4/2]E8 :
[V:2] cdefg2G2- | 
[V:3] G2G2G2G2 | 
[V:4] C,3D,E,4 | 
[V:1] z4B4- | 
[V:2] G2F2GABc | 
[V:3] A4z4 | 
[V:4] D,4z2G,,2 | 
[V:1] B4c4 :
[V:2] d2e4c2 | 
[V:3] z2G2E2F2 | 
[V:4] G,,2G,,2A,,4 | 
[V:1] B4e4- | 
[V:2] d4c4 | 
[V:3] G4C3D | 
[V:4] G,,4z2C,2- | 
[V:1] e4d2c2 :
[V:2] z8 | 
[V:3] EFGAB2c2 | 
[V:4] C,D,E,F,G,2A,2 | 
[V:1] d2c2B2A2 | 
[V:2] z8 | 
[V:3] G2A2E2c2- | 
[V:4] B,2C2G,2A,2 | 
[V:1] G6A2 :
[V:2] z4B2c2 | 
[V:3] c2BAG4 | 
[V:4] E,2G,4F,E, | 
[V:1] B4c4- | 
[V:2] d4e4 | 
[V:3] z4E3F | 
[V:4] D,4C,4 | 
[V:1] c2B2B4- :
[V:2] d4B4 | 
[V:3] G2G2G4 | 
[V:4] z4E,3F, | 
[V:1] B4A4 | 
[V:2] z2B2c4 | 
[V:3] E4z4 | 
[V:4] G,2E,2A,4 | 
[V:1] B4c4- :
[V:2] B4e4 | 
[V:3] z2G4G2 | 
[V:4] G,4E,4 | 
[V:1] c2B2d4- | 
[V:2] c4f4 | 
[V:3] A4F4 | 
[V:4] F,4D,4 | 
[V:1] d2c2c4- :
[V:2] e4c3d | 
[V:3] G4A3F | 
[V:4] E,4F,4 | 
[V:1] c4B4 | 
[V:2] e8 | 
[V:3] G2A2E4 | 
[V:4] E,2A,4^G,2 | 
[V:1] c4A4- :
[V:2] z2e2e2e2 | 
[V:3] z2c2c2c2 | 
[V:4] A,6G,A, | 
[V:1] A4G2F2 | 
[V:2] f3ed2c2 | 
[V:3] d3cB2A2 | 
[V:4] D,2F,2G,2A,2 | 
[V:1] [M:2/1]E4z2B2- | 
[V:2] B4E4 | 
[V:3] G8- | 
[V:4] E,8- | 
[V:1] B2c2B2e2- | 
[V:2] g8 | 
[V:3] G8 | 
[V:4] E,8 | 
[V:1] e2dcdcBA | 
[V:2] e4f4 | 
[V:3] z8 | 
[V:4] z8 | 
[V:1] G3AB2c2- | 
[V:2] e2c2d2e2- | 
[V:3] z8 | 
[V:4] z8 | 
[V:1] cBB4A2 | 
[V:2] edd2B2c2 | 
[V:3] z8 | 
[V:4] z8 | 
[V:1] B2c3Bd2- | 
[V:2] d2e3df2- | 
[V:3] z8 | 
[V:4] z8 | 
[V:1] dcc4B2 | 
[V:2] fec2d4 | 
[V:3] z8 | 
[V:4] z8 | 
[V:1] c2A4GF | 
[V:2] c4A2B2 | 
[V:3] z8 | 
[V:4] z8 | 
[V:1] [M:4/2]E8 :
[V:2] c4z2A2- | 
[V:3] z4c4 | 
[V:4] z4A,4 | 
[V:1] F4E4- | 
[V:2] A2B2c2A2 | 
[V:3] d4c4 | 
[V:4] D,4A,4 | 
[V:1] E4A4- :
[V:2] e4A4 | 
[V:3] z4c4 | 
[V:4] z2E,2F,4 | 
[V:1] A4G4 | 
[V:2] z2A2e4 | 
[V:3] A4B4 | 
[V:4] F,4E,4 | 
[V:1] A4c4 :
[V:2] A4e3f | 
[V:3] c4z2c2 | 
[V:4] z4A,4 | 
[V:1] B8 | 
[V:2] g3fd2e2- | 
[V:3] d4B4 | 
[V:4] G,4G,4 | 
[V:1] [M:2/1]E4F2E2- | 
[V:2] e2c2d2e2 | 
[V:3] c4A4 | 
[V:4] A,4D,2A,2- | 
[V:1] E2A4G2 | 
[V:2] A4z2e2 | 
[V:3] z2A2B3c | 
[V:4] A,G,F,2E,4 | 
[V:1] A2c2B4 | 
[V:2] f2e2g4 | 
[V:3] d2c2d2e2 | 
[V:4] D,2A,2G,2E,2 | 
[V:1] [M:4/2]A4c4- :
[V:2] c2d2e2f2- | 
[V:3] A4z2A2 | 
[V:4] F,2D,2A,4- | 
[V:1] c4B2A2 | 
[V:2] fee4d2 | 
[V:3] c3BG2A2 | 
[V:4] A,2G,A,E,2F,2 | 
[V:1] G8- :
[V:2] e8 | 
[V:3] B2c4B2 | 
[V:4] E,8 | 
[V:1] G8 | 
[V:2] z2e2e2e2 | 
[V:3] c4z2c2 | 
[V:4] z2C,2C3B, | 
[V:1] [M:2/1]A2c4BA | 
[V:2] f2e4d2 | 
[V:3] c4A4 | 
[V:4] A,3G,F,4 | 
[V:1] G8- | 
[V:2] e8- | 
[V:3] B4c4 | 
[V:4] E,8- | 
[V:1] G8 ||  
[V:2] e8 ||  
[V:3] B8 ||  
[V:4] E,8 ||  
[V:1] [M:2/1]z8 | 
[V:2] [M:2/1]z8 | 
[V:3] [M:2/1]z8 | 
[V:4] [M:2/1]C4G,2A,2 | 
[V:1] z8 | 
[V:2] z8 | 
[V:3] z8 | 
[V:4] E,4F,3E, | 
[V:1] z8 | 
[V:2] z8 | 
[V:3] e4B2c2 | 
[V:4] C,D,E,F,G,2A,2 | 
[V:1] z8 | 
[V:2] z8 | 
[V:3] G4A3G | 
[V:4] B,2G,4F,2 | 
[V:1] z8 | 
[V:2] g4d2e2 | 
[V:3] EFGAB2c2 | 
[V:4] G,4z4 | 
[V:1] z8 | 
[V:2] B4c3B | 
[V:3] d2B4A2 | 
[V:4] z8 | 
[V:1] z4G4 | 
[V:2] G8 | 
[V:3] B8 | 
[V:4] z4E,4 | 
[V:1] G4G4 | 
[V:2] z4d4 | 
[V:3] z4B4 | 
[V:4] G,4G,4 | 
[V:1] G8 | 
[V:2] e4e4 | 
[V:3] c4c4 | 
[V:4] C,8 | 
[V:1] A8 | 
[V:2] c6d2 | 
[V:3] A6B2 | 
[V:4] F,8 | 
[V:1] G8 | 
[V:2] e4d4 | 
[V:3] c4B4 | 
[V:4] E,4z2G,2- | 
[V:1] z8 | 
[V:2] e6dc | 
[V:3] E4z4 | 
[V:4] G,2G,2G,2A,2 | 
[V:1] z8 | 
[V:2] B2c4BA | 
[V:3] z8 | 
[V:4] G,2A,4G,F, | 
[V:1] z8 | 
[V:2] G8 | 
[V:3] B3BB2c2 | 
[V:4] E,8- | 
[V:1] z8 | 
[V:2] z8 | 
[V:3] B2c4BA | 
[V:4] E,8 | 
[V:1] z8 | 
[V:2] d3dd2e2 | 
[V:3] G8- | 
[V:4] z8 | 
[V:1] z8 | 
[V:2] d2e4dc | 
[V:3] G8 | 
[V:4] z8 | 
[V:1] z4G4 | 
[V:2] B4e4 | 
[V:3] z4B4 | 
[V:4] z4E,4 | 
[V:1] G4G4 | 
[V:2] d4e4 | 
[V:3] B4c4 | 
[V:4] G,4C,4 | 
[V:1] G8 | 
[V:2] d4e4 | 
[V:3] B4c4 | 
[V:4] G,4E,4 | 
[V:1] A8 | 
[V:2] c4f4 | 
[V:3] A3GABc2- | 
[V:4] F,6E,2 | 
[V:1] G8 | 
[V:2] e3cd2e2- | 
[V:3] c2BAG2C2 | 
[V:4] C,4z4 | 
[V:1] E4D2G2- | 
[V:2] e2dcB2G2 | 
[V:3] G4z4 | 
[V:4] C,4G,4 | 
[V:1] G2FEFEDC | 
[V:2] B2c2d4 | 
[V:3] G4A4 | 
[V:4] E,4D,4 | 
[V:1] B,2E4D2 | 
[V:2] z2G2A3B | 
[V:3] G2E2F2F2 | 
[V:4] z8 | 
[V:1] E4D2G2- | 
[V:2] c2B3AGF | 
[V:3] E2E2G4- | 
[V:4] z8 | 
[V:1] G2FEFEDC | 
[V:2] E4D4 | 
[V:3] G4A4 | 
[V:4] z8 | 
[V:1] B,2E4D2 | 
[V:2] G4A4 | 
[V:3] z4z2A2 | 
[V:4] E,4F,4 | 
[V:1] E4F4 | 
[V:2] G2A3Dd2 | 
[V:3] B2c2A4 | 
[V:4] E,2C,2D,4 | 
[V:1] E4z2A2- | 
[V:2] B2G2A4 | 
[V:3] G3FD2d2 | 
[V:4] E,4F,2D,2 | 
[V:1] A2G2A4 | 
[V:2] e4f4 | 
[V:3] B2c2d3c | 
[V:4] E,4D,4 | 
[V:1] B4c4 | 
[V:2] d2e4c2 | 
[V:3] BAG2c2A2 | 
[V:4] G,4A,4 | 
[V:1] B2G2A4 | 
[V:2] d2e3dd2- | 
[V:3] B2c2A2F2 | 
[V:4] G,2E,2F,2D,2 | 
[V:1] G2G4^F2 | 
[V:2] d2c2d4 | 
[V:3] G4A4 | 
[V:4] E,4D,4 | 
[V:1] G8 | 
[V:2] z2d2e2e2 | 
[V:3] G4C4 | 
[V:4] G,,4z2C,2 | 
[V:1] E4F4 | 
[V:2] c4A4 | 
[V:3] z2G2F4 | 
[V:4] C,4D,4 | 
[V:1] E4z2A2- | 
[V:2] z2c4A2 | 
[V:3] G4A4 | 
[V:4] C,4A,,4 | 
[V:1] A2G2A4 | 
[V:2] B2c2d4- | 
[V:3] E2G2F2A2- | 
[V:4] z2E,2D,2C,2 | 
[V:1] B4c4 | 
[V:2] d4e2c2 | 
[V:3] A^G^G^FA4 | 
[V:4] B,,4A,,2A,2 | 
[V:1] B2G2A4 | 
[V:2] d2e2c2d2- | 
[V:3] B2c2A2F2 | 
[V:4] G,2E,2F,2D,2 | 
[V:1] G2G4^F2 | 
[V:2] dccBd4 | 
[V:3] G4A4 | 
[V:4] E,4D,4 | 
[V:1] G8 | 
[V:2] z2G2E3F | 
[V:3] G4G2E2- | 
[V:4] G,,4z2G,2 | 
[V:1] z4G4 | 
[V:2] G2C2z4 | 
[V:3] EFG2CDEF | 
[V:4] E,3F,G,2C,2 | 
[V:1] G2A4GF | 
[V:2] z8 | 
[V:3] GCc4B2 | 
[V:4] E,2F,2D,4 | 
[V:1] E6F2- | 
[V:2] CDEFG2AG | 
[V:3] c4z4 | 
[V:4] C,4z4 | 
[V:1] FEC2D4 | 
[V:2] AGc4B2 | 
[V:3] z8 | 
[V:4] z4z2G,2 | 
[V:1] z4G4 | 
[V:2] c4z4 | 
[V:3] z2A2B2c2 | 
[V:4] E,2F,2G,2C,2 | 
[V:1] G2A4GF | 
[V:2] z8 | 
[V:3] G2c2[M:2/1](3d2A2B2 | 
[V:4] E,2F,2D,4 | 
[V:1] E6F2- | 
[V:2] cdefg2a2- | 
[V:3] [M:2/1]c4z4 | 
[V:4] C,4z4 | 
[V:1] FEC2D4 | 
[V:2] age2f4 | 
[V:3] z8 | 
[V:4] z8 | 
[V:1] E3FG2A2 | 
[V:2] e2c2c3c | 
[V:3] z8 | 
[V:4] z8 | 
[V:1] G2c4BA | 
[V:2] c4z2g2 | 
[V:3] z2c2c3c | 
[V:4] z2C,2C,3C, | 
[V:1] B2d2c2e2- | 
[V:2] g3gg4 | 
[V:3] d4z2c2 | 
[V:4] G,4z2C,2 | 
[V:1] edc3Bd2- | 
[V:2] z2g2g2g2 | 
[V:3] c3cd2d2 | 
[V:4] C,3C,G,4 | 
[V:1] dcBAB4 | 
[V:2] g4z2g2 | 
[V:3] G2G2d4 | 
[V:4] z2G,2G,2G,2 | 
[V:1] E3FG2A2 | 
[V:2] g2g2c4 | 
[V:3] z2c2e2f2 | 
[V:4] C6F,2 | 
[V:1] G2c4BA | 
[V:2] z2c2e2f2 | 
[V:3] g4z2c2 | 
[V:4] C3B,A,4 | 
[V:1] B2d2c2e2- | 
[V:2] g4z2c2 | 
[V:3] d2B2c4 | 
[V:4] G,2G,2A,4 | 
[V:1] edc3Bd2- | 
[V:2] e2f2g4 | 
[V:3] z2c2e2d2 | 
[V:4] A,4G,4 | 
[V:1] dcBAB4 | 
[V:2] z2g2g2g2 | 
[V:3] GABcd2e2- | 
[V:4] z2G,2G,2G,2 | 
[V:1] c4z4 | 
[V:2] c4d4 | 
[V:3] edc4B2 | 
[V:4] A,4G,4 | 
[V:1] c4d2e2- | 
[V:2] c2e2d2g2- | 
[V:3] c4G4 | 
[V:4] C,2C2B,2G,2 | 
[V:1] e2dcB2c2- | 
[V:2] g2f2g2c2- | 
[V:3] z2c2d2e2- | 
[V:4] A,4G,2E,2 | 
[V:1] c2BAG2A2- | 
[V:2] c2d2e2A2- | 
[V:3] e2A2B2c2 | 
[V:4] F,4E,2C,2 | 
[V:1] A2GFE2F2- | 
[V:2] A2B2c2F2- | 
[V:3] F4z2A2- | 
[V:4] D,4C,2D,2- | 
[V:1] FEE4D2 | 
[V:2] F2c2A2B2 | 
[V:3] AGE2F4 | 
[V:4] D,2C,2D,4 | 
[V:1] E8- | 
[V:2] c8- | 
[V:3] E4A4 | 
[V:4] A,,6B,,2 | 
[V:1] E8- | 
[V:2] c8 | 
[V:3] G2E2A4 | 
[V:4] C,4A,,4 | 
[V:1] E8 ||  
[V:2] B8 ||  
[V:3] G8 ||  
[V:4] E,8 ||  
[V:1] [M:2/1]z8 | 
[V:2] [M:2/1]A2A2c4 | 
[V:3] [M:2/1]c6c2 | 
[V:4] [M:2/1]z2A,4A,2 | 
[V:1] z8 | 
[V:2] d4e4 | 
[V:3] B2A2G4 | 
[V:4] G,2F,2E,4 | 
[V:1] E8 | 
[V:2] A2A2c4 | 
[V:3] z2c4c2 | 
[V:4] z2A,4A,2 | 
[V:1] B4B4 | 
[V:2] d4e4 | 
[V:3] B2A2G4 | 
[V:4] G,2F,2E,4 | 
[V:1] c4c4 | 
[V:2] z2e2e2c2 | 
[V:3] z2c2c2A2 | 
[V:4] z2A,2A,2A,2 | 
[V:1] B4G4 | 
[V:2] d4e4 | 
[V:3] B2d3^c^cB | 
[V:4] G,3F,E,4 | 
[V:1] A4A4 | 
[V:2] f8 | 
[V:3] d8 | 
[V:4] D,4z2D,2 | 
[V:1] G3AB2E2- | 
[V:2] z8 | 
[V:3] z8 | 
[V:4] E,2F,2G,4 | 
[V:1] EFG2A2E2 | 
[V:2] z8 | 
[V:3] z8 | 
[V:4] z2E,2F,2G,2 | 
[V:1] F2E4D2 | 
[V:2] z8 | 
[V:3] z8 | 
[V:4] A,2E,2F,4 | 
[V:1] E4z4 | 
[V:2] z2e2e2f2 | 
[V:3] z2c2c2c2 | 
[V:4] E,2A,2A,2A,2 | 
[V:1] B4G4 | 
[V:2] g2G3ABc | 
[V:3] d4z2e2 | 
[V:4] G,4z2E,2 | 
[V:1] A4B4 | 
[V:2] A2a2g2f2 | 
[V:3] d2c2B4 | 
[V:4] F,4G,4 | 
[V:1] c4B2G2- | 
[V:2] e2c2d2e2- | 
[V:3] z2A2B4 | 
[V:4] A,4z2E,2 | 
[V:1] G2A2B4 | 
[V:2] e2A2d4 | 
[V:3] c4B4 | 
[V:4] E,2F,2G,4 | 
[V:1] E4z2B2- | 
[V:2] cdefg2g2 | 
[V:3] c4B4 | 
[V:4] A,4E,3F, | 
[V:1] B2c2B2e2- | 
[V:2] g2c2g4- | 
[V:3] z2e4e2 | 
[V:4] G,2A,2E,3F, | 
[V:1] e2dcdcBA | 
[V:2] g2e2f4 | 
[V:3] e2e2d4 | 
[V:4] G,2A,2D,4 | 
[V:1] G3AB2c2- | 
[V:2] e2g4c2 | 
[V:3] B2e4e2 | 
[V:4] E,3F,G,2A,2 | 
[V:1] cBB4A2 | 
[V:2] g6c2 | 
[V:3] e2e2d2c2 | 
[V:4] E,3F,G,2A,2 | 
[V:1] B2c3Bd2- | 
[V:2] g2e2a4 | 
[V:3] B2e4f2- | 
[V:4] G,2A,4D,2 | 
[V:1] dcc4B2 | 
[V:2] f4g4 | 
[V:3] fec2d4 | 
[V:4] A,4G,4 | 
[V:1] c2A4GF | 
[V:2] e4a4- | 
[V:3] c4d4 | 
[V:4] A,4D,4 | 
[V:1] E4F2E2- | 
[V:2] a2a2a2A2 | 
[V:3] z2c4c2 | 
[V:4] A,6A,2 | 
[V:1] E2A4G2 | 
[V:2] e6de | 
[V:3] c2c2B4 | 
[V:4] A,2A,2E,4 | 
[V:1] A2c2B4 | 
[V:2] c2A2d4 | 
[V:3] A4G4 | 
[V:4] F,4G,4 | 
[V:1] A2c4BA | 
[V:2] c2A3GA2 | 
[V:3] c6d2 | 
[V:4] A,3G,F,4 | 
[V:1] G8 | 
[V:2] B2e2d2e2 | 
[V:3] e2E2G2G2 | 
[V:4] E,4z2E,2 | 
[V:1] z4G4 | 
[V:2] d2e4E2 | 
[V:3] G3EE4 | 
[V:4] G,2G,2G,3E, | 
[V:1] G4G4 | 
[V:2] G2G2E4 | 
[V:3] z2E2G2G2 | 
[V:4] E,4z2E,2 | 
[V:1] G8 | 
[V:2] z2e2e2d2 | 
[V:3] E4z2B2 | 
[V:4] G,2G,2E,2G,2 | 
[V:1] A8 | 
[V:2] f3ec2d2 | 
[V:3] c2d2e2A2 | 
[V:4] F,2D,2A,2F,2 | 
[V:1] G4G4 | 
[V:2] e4z2e2- | 
[V:3] B2E2G2E2 | 
[V:4] E,2G,2E,2G,2 | 
[V:1] E4D2G2- | 
[V:2] edc2B2c2 | 
[V:3] G2C2z2C2 | 
[V:4] C,2G,2G,2E,2 | 
[V:1] G2FEFEDC | 
[V:2] B4z2f2 | 
[V:3] G4A4 | 
[V:4] E,4z2D,2 | 
[V:1] B,2E4D2 | 
[V:2] g4a4 | 
[V:3] G4z2F2 | 
[V:4] E,4F,4 | 
[V:1] E4F4 | 
[V:2] g4z2f2 | 
[V:3] G2G2A4 | 
[V:4] E,4z2D,2 | 
[V:1] E4z2A2- | 
[V:2] g2e3cd2 | 
[V:3] G2c4A2 | 
[V:4] E,2E,2F,4 | 
[V:1] A2G2A4 | 
[V:2] e4z2c2 | 
[V:3] B2B2c4 | 
[V:4] E,4z2A,2 | 
[V:1] B4c4 | 
[V:2] d2e4c2 | 
[V:3] B4z2A2 | 
[V:4] G,2E,2A,4 | 
[V:1] B2G2A4 | 
[V:2] d2e4d2 | 
[V:3] B2c4A2 | 
[V:4] G,2E,2F,4 | 
[V:1] G2G4^F2 | 
[V:2] e4d4 | 
[V:3] B2c2A4 | 
[V:4] E,2C,2D,4 | 
[V:1] G8 | 
[V:2] B2E2G2G2 | 
[V:3] G4z4 | 
[V:4] E,4z2E,2 | 
[V:1] z4G4 | 
[V:2] EFGABEe2- | 
[V:3] z2E2G2G2 | 
[V:4] G,2G,2E,4 | 
[V:1] G2A4GF | 
[V:2] e2c2d4 | 
[V:3] E2F4ED | 
[V:4] z8 | 
[V:1] E6F2- | 
[V:2] z2c2B2c2- | 
[V:3] A4z4 | 
[V:4] z2A,2G,2A,2- | 
[V:1] FEC2D4 | 
[V:2] cBG2A4 | 
[V:3] z8 | 
[V:4] A,G,E,2F,4 | 
[V:1] E3FG2A2 | 
[V:2] B2c2d2e2- | 
[V:3] z8 | 
[V:4] E,2A,2G,2C2- | 
[V:1] G2c4BA | 
[V:2] e2dce2f2 | 
[V:3] z8 | 
[V:4] C2B,A,C2D2 | 
[V:1] B2d2c2e2- | 
[V:2] d4e4 | 
[V:3] z8 | 
[V:4] B,4A,4 | 
[V:1] edc3Bd2- | 
[V:2] c4A4 | 
[V:3] e4f4 | 
[V:4] z4F,4 | 
[V:1] dcBAB4 | 
[V:2] B4G4 | 
[V:3] d4z2e2- | 
[V:4] G,4E,4 | 
[V:1] c4z4 | 
[V:2] A3cB2A2 | 
[V:3] e2c2d2e2- | 
[V:4] z2A,2G,2C2- | 
[V:1] c4d2e2- | 
[V:2] e4z2a2- | 
[V:3] edc2B2A2 | 
[V:4] C2A,2B,2C2 | 
[V:1] e2dcB2c2- | 
[V:2] a2f2g2e2 | 
[V:3] c2d2e3A | 
[V:4] A,2_B,2G,2A,2 | 
[V:1] c2BAG2A2- | 
[V:2] f2d2e2c2 | 
[V:3] A2B2c3F | 
[V:4] F,2G,2E,2F,2 | 
[V:1] A2GFE2F2- | 
[V:2] d2B2c2A2 | 
[V:3] F2G2A3D | 
[V:4] D,2E,2C,2D,2 | 
[V:1] FEE4D2 | 
[V:2] _B2G2A2D2 | 
[V:3] D2E2F4 | 
[V:4] _B,,2C,2A,,2B,,2 | 
[V:1] E8- | 
[V:2] B4c4 | 
[V:3] E8- | 
[V:4] G,,4A,,4 | 
[V:1] E8 |]  
[V:2] B8 |]  
[V:3] E8 |]  
[V:4] E,,8 |]  



